!!!OTL: Die Rabenmutter Ach, mein Herz, das koennte bluten,
!!!ARE: Europa, Mitteleuropa, Oesterreich, Tirol
!!!YOR: 5, S. 271
!!    ????
!!!SCT: Q1114b
!!!YEM: Copyright 1995, estate of Helmut Schaffrath.
**kern
*ICvox
*Ivox
*M3/4
*k[f#]
*G:
{8d
8d
=1
4g
4d
8d
8d
=2
4e
4e}
{8g
8g
=3
4f#
4c
8e
8e
=4
4d
4r}
{8B
8d
=5
4b
4b
8cc
8b
=6
4a
4e}
{8a
8g
=7
4f#
4f#
8e
8f#
=8
4g
4r}
==
!!!AGN: ???
!! Melodievergleich zu Q0114Y und Z, anderes Lied.
!!!ONB: ESAC (Essen Associative Code) Database: BALLADE
!!!AMT: simple triple
!!!AIN: vox
!!!EED: Helmut Schaffrath
!!!EEV: 1.0
*-
